X: 188
T: Hey ding a ding
%R: jig, slide
B: Chas & Sam Thompson "Twenty Four Country Dances for the Year 1780", London 1780, p.94 #2
F: http://www.vwml.org/browse/browse-collections-dance-tune-books/browse-thompsons1780
Z: 2014 John Chambers <jc:trillian.mit.edu> (added dance description)
M: 12/8
L: 1/8
K: D
% - - - - - - - - - - - - - - - - - - - - - - - - - - - - -
|:\
d2f e2g fad c2A | d2f eag f3 e3 |\
b2g ebg a2f daf | egf edc d3- d3 :|
|:\
F2A d2c BdB A3 | efg afd c3 e3 |\
afd bge afd ecA | Bcd edc d3- d3 :|
% - - - - - - - - - - Dance description - - - - - - - - - -
%%begintext align
%%   The first Gent: Set to the 2d Lady & turn .|.
%% his Partner do the same with the 2d Gent :|. Cross
%% over two Cu. lead up to the top and Cast off .|:
%% Hands 4 at bottom Right & Left at top :|:
%%endtext

%%sep 1 1 500
%%sep 1 1 500
